X:19006
T:Scan Tester's No 1
R:Reel
C:Scan Tester
O:England
M:4/4
L:1/8
Q:1/4=160
K:G
BA|"G"G2G2GABc|d4d2B2|"Am"c2d2e2f2|"G"g4g2b2|
"Am"a2g2f2e2|"G"e2d2B3d|"Am"e2d2c2B2|"D"A4ABAG|
"G"G2G2GABc|d4d2B2|"Am"c2d2e2f2|"G"g4g2b2|
"Am"a2g2f2e2|"Em"e2d2B3A|"G"G2B2cB "D7"A2|"G"G6|:
BA|"G"G3A B2c2|"C"e2d2B2B2|"Am"A3B cBAc|"C"e2d2B2A2|
"G"G3A B2c2|"C"e2d2B2g2|"G"fedc "D7"B2A2|"G"G6:|

